u/stations/jre/img/019.svg

<?xml version="1.0" encoding="UTF-8" standalone="no"?>
<!-- Created with Inkscape (http://www.inkscape.org/) -->

<svg
   width="70"
   height="30"
   viewBox="0 0 70 30"
   version="1.1"
   id="svg1"
   inkscape:version="1.4 (e7c3feb1, 2024-10-09)"
   sodipodi:docname="019.svg"
   xml:space="preserve"
   xmlns:inkscape="http://www.inkscape.org/namespaces/inkscape"
   xmlns:sodipodi="http://sodipodi.sourceforge.net/DTD/sodipodi-0.dtd"
   xmlns="http://www.w3.org/2000/svg"
   xmlns:svg="http://www.w3.org/2000/svg"><sodipodi:namedview
     id="namedview1"
     pagecolor="#ffffff"
     bordercolor="#000000"
     borderopacity="0.25"
     inkscape:showpageshadow="2"
     inkscape:pageopacity="0.0"
     inkscape:pagecheckerboard="0"
     inkscape:deskcolor="#d1d1d1"
     inkscape:document-units="px"
     inkscape:zoom="4.949493"
     inkscape:cx="37.78165"
     inkscape:cy="24.04287"
     inkscape:window-width="1440"
     inkscape:window-height="653"
     inkscape:window-x="0"
     inkscape:window-y="25"
     inkscape:window-maximized="0"
     inkscape:current-layer="layer1" /><defs
     id="defs1"><linearGradient
       id="linearGradient2"
       x1="66.2"
       x2="47.8"
       y1="10.8"
       y2="29.2"
       gradientUnits="userSpaceOnUse"
       gradientTransform="translate(-0.0327,-30.0017)"><stop
         stop-color="#03bb85"
         offset="0"
         id="stop1" /><stop
         stop-color="#03c18a"
         offset="1"
         id="stop2" /></linearGradient><clipPath
       clipPathUnits="userSpaceOnUse"
       id="clipPath24"><rect
         style="opacity:0.491601;fill:#ff0000;fill-opacity:1;stroke:none;stroke-width:3.19027;stroke-dasharray:none;stroke-opacity:1;paint-order:fill markers stroke"
         id="rect24"
         width="93.2"
         height="93.2"
         x="53.10686"
         y="179.6678" /></clipPath><clipPath
       clipPathUnits="userSpaceOnUse"
       id="clipPath24-7"><rect
         style="opacity:0.491601;fill:#ff0000;fill-opacity:1;stroke:none;stroke-width:3.19027;stroke-dasharray:none;stroke-opacity:1;paint-order:fill markers stroke"
         id="rect24-9"
         width="93.2"
         height="93.2"
         x="53.10686"
         y="179.6678" /></clipPath><clipPath
       clipPathUnits="userSpaceOnUse"
       id="clipPath24-1"><rect
         style="opacity:0.491601;fill:#ff0000;fill-opacity:1;stroke:none;stroke-width:3.19027;stroke-dasharray:none;stroke-opacity:1;paint-order:fill markers stroke"
         id="rect24-0"
         width="93.2"
         height="93.2"
         x="53.10686"
         y="179.6678" /></clipPath><clipPath
       clipPathUnits="userSpaceOnUse"
       id="clipPath24-7-7"><rect
         style="opacity:0.491601;fill:#ff0000;fill-opacity:1;stroke:none;stroke-width:3.19027;stroke-dasharray:none;stroke-opacity:1;paint-order:fill markers stroke"
         id="rect24-9-0"
         width="93.2"
         height="93.2"
         x="53.10686"
         y="179.6678" /></clipPath></defs><g
     inkscape:label="Layer 1"
     inkscape:groupmode="layer"
     id="layer1"><rect
       style="fill:#eb5c01;fill-opacity:1;stroke-width:0.191111;paint-order:fill markers stroke"
       id="rect4"
       width="10"
       height="30"
       x="30"
       y="0" /><circle
       style="fill:#ffffff;fill-opacity:1;stroke:#eb5c01;stroke-width:2;stroke-dasharray:none;stroke-opacity:1;paint-order:fill markers stroke"
       id="path7"
       cx="35"
       cy="15"
       r="6" /><rect
       style="fill:#ffe501;fill-opacity:1;stroke-width:0.135136;paint-order:fill markers stroke"
       id="rect5"
       width="10"
       height="15"
       x="44.01563"
       y="0" /><circle
       style="fill:#ffffff;fill-opacity:1;stroke:#ffe501;stroke-width:2;stroke-dasharray:none;stroke-opacity:1;paint-order:fill markers stroke"
       id="circle5"
       cx="49.01563"
       cy="15"
       r="6" /><path
       d="M 43.07563,6.94 40.95563,9.06 46.89563,15 40.95563,20.94 43.07563,23.06 49.01563,17.12 54.95563,23.06 57.07563,20.94 51.13563,15 57.07563,9.06 54.95563,6.94 49.01563,12.88 Z"
       fill="#ff0000"
       style="paint-order:fill markers stroke;fill:#ff0000"
       id="path1" /><path
       d="M 29.06,6.94 26.94,9.06 32.88,15 26.94,20.94 29.06,23.06 35,17.12 40.94,23.06 43.06,20.94 37.12,15 43.06,9.06 40.94,6.94 35,12.88 Z"
       fill="#ff0000"
       style="fill:#ff0000;paint-order:fill markers stroke"
       id="path8" /></g></svg>

<svg xmlns="http://www.w3.org/2000/svg" xml:space="preserve" width="70" height="30"><path d="M30 0h10v30H30z" style="fill:#eb5c01;fill-opacity:1;stroke-width:.191111;paint-order:fill markers stroke"/><circle cx="35" cy="15" r="6" style="fill:#fff;fill-opacity:1;stroke:#eb5c01;stroke-width:2;stroke-dasharray:none;stroke-opacity:1;paint-order:fill markers stroke"/><path d="M44.016 0h10v15h-10z" style="fill:#ffe501;fill-opacity:1;stroke-width:.135136;paint-order:fill markers stroke"/><circle cx="49.016" cy="15" r="6" style="fill:#fff;fill-opacity:1;stroke:#ffe501;stroke-width:2;stroke-dasharray:none;stroke-opacity:1;paint-order:fill markers stroke"/><path fill="red" d="m43.076 6.94-2.12 2.12 5.94 5.94-5.94 5.94 2.12 2.12 5.94-5.94 5.94 5.94 2.12-2.12-5.94-5.94 5.94-5.94-2.12-2.12-5.94 5.94Z" style="paint-order:fill markers stroke;fill:red"/><path fill="red" d="m29.06 6.94-2.12 2.12L32.88 15l-5.94 5.94 2.12 2.12L35 17.12l5.94 5.94 2.12-2.12L37.12 15l5.94-5.94-2.12-2.12L35 12.88Z" style="fill:red;paint-order:fill markers stroke"/></svg>
